svgs/duotone/hard-drive.svg

<svg xmlns="http://www.w3.org/2000/svg" viewBox="0 0 512 512"><!-- Font Awesome Pro 6.0.0-alpha2 by @fontawesome - https://fontawesome.com License - https://fontawesome.com/license (Commercial License) --><defs><style>.fa-secondary{opacity:.4}</style></defs><path d="M464 32H48C21.5 32 0 53.5 0 80V336C0 309.5 21.5 288 48 288H464C490.5 288 512 309.5 512 336V80C512 53.5 490.5 32 464 32ZM320 352C302.375 352 288 366.375 288 384S302.375 416 320 416S352 401.625 352 384S337.625 352 320 352Z" class="fa-secondary"/><path d="M464 288H48C21.5 288 0 309.5 0 336V432C0 458.5 21.5 480 48 480H464C490.5 480 512 458.5 512 432V336C512 309.5 490.5 288 464 288ZM320 416C302.375 416 288 401.625 288 384S302.375 352 320 352S352 366.375 352 384S337.625 416 320 416ZM416 416C398.375 416 384 401.625 384 384S398.375 352 416 352S448 366.375 448 384S433.625 416 416 416Z" class="fa-primary"/></svg>

<svg xmlns="http://www.w3.org/2000/svg" viewBox="0 0 512 512"><!--! Font Awesome Pro 6.3.0 by @fontawesome - https://fontawesome.com License - https://fontawesome.com/license (Commercial License) Copyright 2023 Fonticons, Inc. --><defs><style>.fa-secondary{opacity:.4}</style></defs><path class="fa-primary" d="M464 288h-416C21.5 288 0 309.5 0 336v96C0 458.5 21.5 480 48 480h416c26.5 0 48-21.5 48-48v-96C512 309.5 490.5 288 464 288zM320 416c-17.62 0-32-14.38-32-32s14.38-32 32-32s32 14.38 32 32S337.6 416 320 416zM416 416c-17.62 0-32-14.38-32-32s14.38-32 32-32s32 14.38 32 32S433.6 416 416 416z"/><path class="fa-secondary" d="M464 32h-416C21.5 32 0 53.5 0 80v256C0 309.5 21.5 288 48 288h416c26.5 0 48 21.5 48 48v-256C512 53.5 490.5 32 464 32zM320 352c-17.62 0-32 14.38-32 32s14.38 32 32 32s32-14.38 32-32S337.6 352 320 352z"/></svg>
